X: 33782
T: Ravne Pers Vals
R: waltz
M: 3/4
K: Dmajor
|:DE FA A2|FA Ad d2|Ad df f2|df fa a2|
fa ag g2|eg gf f2|df fe ge|ce d4:|
|:d2 AB AG|FG AB A2|dB B2 BA|
GA Bc B2|dA A2 AG|FG AB AB|c2 cA ce|d4 A/B/c:|

